X:1
T:Night and Day
T:Night and Day
T:Fanny B. Earle, 1904, alt.
T:Mary Mapes Dodge, 1874
T:Public Domain Courtesy of the Cyber Hymnal™
C:Fanny B. Earle, 1904, alt.
Z:Public Domain
Z:Courtesy of the Cyber Hymnal™
%%score 1 ( 2 3 )
L:1/8
Q:1/4=80
M:4/4
K:A
V:1 treble 
V:2 bass 
V:3 bass 
V:1
 [CE][CEc][CEB][CEc] [DA][DF] [CE]2 | [CE][CEF][CEG][CEA] [^DAc][DAB] [EGB]2 | %2
w: 1.~When I run a- bout all day,|When I kneel at night to pray,|
w: 2.~When I’m dream- ing in the dark,|When I lie a- wake and hark,|
w: 3.~Need I ev- er know a fear?|Night and day my Fa- ther’s near:|
 [CEc]2 [B,DF]4 [DEB]2 | [CEA]8 |] %4
w: God sees, God|sees.|
w: God sees, God|sees.|
w: God sees, God|sees.|
V:2
 [A,,E,][A,,E,][A,,E,][A,,E,] [A,,F,][A,,G,] [A,,A,]2 | A,A,G,F, F,B,, E,2 | %2
 [A,,E,]2 D,4 [E,,B,,G,]2 | [A,,E,]8 |] %4
V:3
 x8 | x6 E,2 | x2 D,4 x2 | x8 |] %4

